X: 11
T: The Green Cottage
R: polka
M: 2/4
L: 1/8
K: Ador
|:cA A>G|EA A>B|cA AG|cd e>d|
cA A>G|EA A2|ed cB|1 A2 e>d:|2 A2 A2||
|:ea ab|ag ed|ea gb|a2 ab|
c’2 b2|ag ed|eA A/B/c/d/|e2 ed:|

